Numix-GalliumOS/64/mimetypes/application-vector.svg

<svg xmlns="http://www.w3.org/2000/svg" xmlns:xlink="http://www.w3.org/1999/xlink" width="64px" height="64px" viewBox="0 0 64 64" version="1.1">
<g id="surface1">
<path style=" stroke:none;fill-rule:nonzero;fill:rgb(1.568627%,66.666667%,61.176471%);fill-opacity:1;" d="M 10.671875 0 C 9.296875 0 8 1.355469 8 2.789062 L 8 61.210938 C 8 62.566406 9.375 64 10.671875 64 L 53.328125 64 C 54.625 64 56 62.566406 56 61.210938 L 56 18 L 38 0 Z M 10.671875 0 "/>
<path style=" stroke:none;fill-rule:nonzero;fill:rgb(0%,0%,0%);fill-opacity:0.196078;" d="M 42 18 L 56 32 L 56 18 Z M 42 18 "/>
<path style=" stroke:none;fill-rule:nonzero;fill:rgb(100%,100%,100%);fill-opacity:0.392157;" d="M 38 0 L 55.984375 18 L 40.757812 18 C 39.410156 18 38 16.574219 38 15.226562 Z M 38 0 "/>
<path style=" stroke:none;fill-rule:nonzero;fill:rgb(100%,100%,100%);fill-opacity:1;" d="M 40 22.773438 C 39.15625 22.773438 38.394531 23.34375 38 24 L 30 24 C 30 24 28.054688 23.847656 26.359375 24.667969 C 24.65625 25.484375 22.855469 27.363281 22.855469 30.488281 C 22.855469 33.613281 24.65625 35.492188 26.359375 36.308594 C 27.160156 36.699219 27.953125 36.859375 28.574219 36.964844 L 28.574219 37.445312 L 25.429688 40.476562 C 25.335938 40.453125 25.25 40.410156 25.144531 40.410156 C 24.507812 40.410156 24 40.898438 24 41.511719 C 24 42.121094 24.507812 42.613281 25.144531 42.613281 C 25.773438 42.613281 26.28125 42.121094 26.28125 41.511719 C 26.28125 41.40625 26.238281 41.332031 26.214844 41.234375 L 29.355469 38.203125 L 33.144531 38.203125 L 33.144531 37.101562 L 34.28125 37.101562 C 34.28125 37.101562 35.488281 37.128906 36.640625 37.6875 C 37.804688 38.246094 38.855469 39.125 38.855469 41.511719 C 38.855469 43.898438 37.804688 44.773438 36.640625 45.335938 C 35.488281 45.894531 34 46 34 46 L 26 46 C 25.605469 45.34375 24.84375 44.816406 24 44.816406 C 22.734375 44.816406 21.710938 45.808594 21.710938 47.023438 C 21.710938 48.238281 22.734375 49.226562 24 49.226562 C 24.84375 49.226562 25.605469 48.65625 26 48 L 34 48 C 34 48 35.945312 48.152344 37.640625 47.332031 C 39.34375 46.515625 41.144531 44.636719 41.144531 41.511719 C 41.144531 38.386719 39.34375 36.507812 37.640625 35.691406 C 35.945312 34.871094 34.28125 34.898438 34.28125 34.898438 L 33.144531 34.898438 L 33.144531 34.554688 L 36.289062 31.523438 C 36.382812 31.546875 36.46875 31.589844 36.574219 31.589844 C 37.203125 31.589844 37.71875 31.101562 37.71875 30.488281 C 37.71875 29.878906 37.203125 29.386719 36.574219 29.386719 C 35.945312 29.386719 35.425781 29.878906 35.425781 30.488281 C 35.425781 30.59375 35.46875 30.667969 35.503906 30.765625 L 32.351562 33.796875 L 28.574219 33.796875 L 28.574219 34.726562 C 28.195312 34.640625 27.78125 34.519531 27.359375 34.3125 C 26.195312 33.753906 25.144531 32.875 25.144531 30.488281 C 25.144531 28.101562 26.195312 27.226562 27.359375 26.664062 C 28.511719 26.105469 30 26 30 26 L 38 26 C 38.394531 26.65625 39.15625 27.183594 40 27.183594 C 41.265625 27.183594 42.289062 26.191406 42.289062 24.976562 C 42.289062 23.761719 41.265625 22.773438 40 22.773438 Z M 40 22.773438 "/>
</g>
</svg>

<svg xmlns="http://www.w3.org/2000/svg" viewBox="0 0 64 64">
 <g>
  <path d="m 10.672 0 c -1.375 0 -2.672 1.355 -2.672 2.789 l 0 58.42 c 0 1.355 1.375 2.789 2.672 2.789 l 42.656 0 c 1.297 0 2.672 -1.434 2.672 -2.789 l 0 -43.21 l -18 -18 m -27.328 0" style="fill:#03aa9c;fill-opacity:1;stroke:none;fill-rule:nonzero"/>
  <path d="m 42 18 l 14 14 l 0 -14 m -14 0" style="fill:#000;fill-opacity:0.196;stroke:none;fill-rule:nonzero"/>
  <path d="m 38 0 l 17.984 18 l -15.227 0 c -1.348 0 -2.758 -1.426 -2.758 -2.773 m 0 -15.227" style="fill:#fff;fill-opacity:0.392;stroke:none;fill-rule:nonzero"/>
  <path d="m 40 22.773 c -0.844 0 -1.605 0.57 -2 1.227 l -8 0 c 0 0 -1.945 -0.152 -3.641 0.668 c -1.703 0.816 -3.504 2.695 -3.504 5.82 c 0 3.125 1.801 5 3.504 5.82 c 0.801 0.391 1.594 0.551 2.215 0.656 l 0 0.48 l -3.145 3.03 c -0.094 -0.023 -0.18 -0.066 -0.285 -0.066 c -0.637 0 -1.145 0.488 -1.145 1.102 c 0 0.609 0.508 1.102 1.145 1.102 c 0.629 0 1.137 -0.492 1.137 -1.102 c 0 -0.105 -0.043 -0.18 -0.066 -0.277 l 3.141 -3.03 l 3.789 0 l 0 -1.102 l 1.137 0 c 0 0 1.207 0.027 2.359 0.586 c 1.164 0.559 2.215 1.438 2.215 3.824 c 0 2.387 -1.051 3.262 -2.215 3.824 c -1.152 0.559 -2.641 0.664 -2.641 0.664 l -8 0 c -0.395 -0.656 -1.156 -1.184 -2 -1.184 c -1.266 0 -2.289 0.992 -2.289 2.207 c 0 1.215 1.023 2.203 2.289 2.203 c 0.844 0 1.605 -0.57 2 -1.227 l 8 0 c 0 0 1.945 0.152 3.641 -0.668 c 1.703 -0.816 3.504 -2.695 3.504 -5.82 c 0 -3.125 -1.801 -5 -3.504 -5.82 c -1.695 -0.82 -3.359 -0.793 -3.359 -0.793 l -1.137 0 l 0 -0.344 l 3.145 -3.03 c 0.094 0.023 0.18 0.066 0.285 0.066 c 0.629 0 1.145 -0.488 1.145 -1.102 c 0 -0.609 -0.516 -1.102 -1.145 -1.102 c -0.629 0 -1.148 0.492 -1.148 1.102 c 0 0.105 0.043 0.18 0.078 0.277 l -3.152 3.03 l -3.777 0 l 0 0.93 c -0.379 -0.086 -0.793 -0.207 -1.215 -0.414 c -1.164 -0.559 -2.215 -1.438 -2.215 -3.824 c 0 -2.387 1.051 -3.262 2.215 -3.824 c 1.152 -0.559 2.641 -0.664 2.641 -0.664 l 8 0 c 0.395 0.656 1.156 1.184 2 1.184 c 1.266 0 2.289 -0.992 2.289 -2.207 c 0 -1.215 -1.023 -2.203 -2.289 -2.203 m 0 0" style="fill:#fff;fill-opacity:1;stroke:none;fill-rule:nonzero"/>
 </g>
</svg>
